**kern	**kern	**dynam
*part1	*part1	*part1
*staff2	*staff1	*
*I"Piano	*	*
*clefF4	*clefG2	*
*k[]	*k[]	*
=1	=1	=1
8r	(8ccL 8ccc	.
8GL 8d 8f	8b 8bb	pp
8G 8c 8f	8a 8aa	pp
8GJ 8B 8f	8gJ) 8gg	pp
=	=	=
2r	2r	.
*clefG2	*	*
=	=	=
([4g^ [4b-X [4cc#X 4ff	([4gg [4bb-X [4ccc#X 4fff	pp
8g]) 8b-] 8cc#] 8ee	4gg]) 4bb-] 4ccc#] 4eee	.
*	*^	*
8r	.	8r	.
*	*v	*v	*
=	=	=
([4e^ [4g [4b-X 4dd	(([4ee [4gg 4bb-X 4ddd	.
8e]) 8g] 8b-] 8cc#X	8ee])) 8gg] 8bb- 8ccc#X	.
8r	8r	.
*clefF4	*	*
=	=	=
([4G [4B-X [4c#X 4f	([4g [4b-X [4cc#X 4ff	pp
8G]) 8B-] 8c#] 8e	8g]) 8b-] 8cc#] 8ee	.
8r	8ryy	.
=	=	=
([4E [4G [4B-X 4d	([4e [4g [4b-X 4dd	.
8E]) 8G] 8B-] 8c#X	8e]) 8g] 8b-] 8cc#X	.
8r	8r	.
=	=	=
[2F [2A [2e	[2f [2a [2ee	.
=	=	=
*^	*^	*
(8eL]	2F] 2A]	(8eeL]	2f] 2a]	.
8d	.	8dd	.	.
8A	.	8a	.	.
8dJ)	.	8ddJ)	.	.
*v	*v	*	*	*
*	*v	*v	*
=	=	=
([2G 2e-X	(((2f#X 2a 2cc	>
=	=	=
4G]) 4d	4g))) 4b	.
4r	4r	]
=	=	=
*-	*-	*-
!!!system-decoration: {(s1,s2)}
